X: 42032
T: Waltz An Chleamhnais
R: waltz
M: 3/4
K: Dmajor
fe|d3 f ed|(3BdB A3 F|(A6|A4)fe|d3 f ed|(3BdB A3 F|(E6|E4) DE
F3 E ED|EF Ad cA|(B6|B4) AB|d3 B BA|FA Bd AF|(E6|E4) fe
d3 f ed|(3BdB A3 F|(A6|A3)d fe|d3 f ed|(3BdB A3 F|(E6|E4) DE
F3 E ED|EF BA de|f3 A ed|B3 d dc|(3BdB A3 B|d F D|(E6|E4)
FG|A3 F ED|(3BdB A3 F|(A6|A4) FG|A3 F ED|(3BdB A3 F|E4 FG
A3 F ED|ef ,ae ed|B6|d3 e dc|(3BdB A3 F|(3EFE D2 DB,|(D6|D4):|

